X:1
T:Bunter's Joke, The
M:6/8
L:1/8
B:John Walsh – The Second Book of the Compleat Country Dancing-Master (3rd edition)
B: (London, 1740, No. 9)
Z:AK/Fiddler’s Companion
K:G
G>AG B2g|f3e d2|e>fe (gb)B|A3 D3|
G>AG (Bd)g|faf e2d|^c>de A>Bc|(dA)F E2D:|
|:A>BA B2e|df^d e2f|g>fe e2^d|e2z g2z|
d2z c2z|B2z z2z|(BG)g (dB)b|g>fe d2c|
BgB AcA|BgB c2A|(BG)g (dB)b|g>fe d2c|
BgB AcA|BgB c2A|B>AG ADF|G3 z2z:||

